X:2114
T:Hinkin Winkin 
C:Tom Kermode, Bradda
C:Traditional
O:Isle of Man
Z:Clague collection
B:Kiaull Vannin #114 
M:6/8 
L:1/8
Q:160 
K:D 
d2c B2A|B2c F3|AAB A2F|A2B A3|d2c B2A|B2c F3|AAB A2F|A2B A3| 
d3 d3|d2 e d2c|B3 e3|e2d e3|d2d d2e|f2g f2e| 
d2B A3|d2F E3|F2A B3|A3-A3|F2A B3|A3-A3|| 

